src/components/icons/ballong.svg

<?xml version="1.0" encoding="UTF-8"?>
<svg width="30px" height="40px" viewBox="0 0 30 40" version="1.1" xmlns="http://www.w3.org/2000/svg" xmlns:xlink="http://www.w3.org/1999/xlink">
    <!-- Generator: Sketch 50 (54983) - http://www.bohemiancoding.com/sketch -->
    <title>Ballong_mintgron</title>
    <desc>Created with Sketch.</desc>
    <defs></defs>
    <g id="Page-1" stroke="none" stroke-width="1" fill="none" fill-rule="evenodd">
        <g id="Home" transform="translate(-53.000000, -504.000000)" fill="#FFFFFF">
            <g id="Ballong_mintgron" transform="translate(53.000000, 504.000000)">
                <g id="Group-3">
                    <path d="M24.0718636,29.3657732 C22.8628636,31.1742955 21.4341818,32.64811 19.8842727,33.6580069 C18.3321818,34.6685911 16.6705909,35.219244 14.9349545,35.2200687 C13.1994545,35.219244 11.5378636,34.6685911 9.98577273,33.6580069 C7.66036364,32.1454296 5.61027273,29.579244 4.15990909,26.4241924 C2.70722727,23.2709278 1.8525,19.5402062 1.85359091,15.7404811 C1.85590909,11.5671478 3.33218182,8.11958763 5.69072727,5.69608247 C8.05254545,3.27532646 11.3053636,1.87436426 14.9349545,1.87271478 C18.5649545,1.87436426 21.8177727,3.27532646 24.1794545,5.69608247 C26.538,8.11958763 28.0141364,11.5671478 28.0165909,15.7404811 C28.0197273,20.8067354 26.4939545,25.7505155 24.0718636,29.3657732 Z M15.9481364,38.3986254 L14.1252273,38.3986254 L14.6187273,37.0823368 C14.724,37.0856357 14.8292727,37.0886598 14.9349545,37.0886598 L14.9376818,37.0886598 C15.1097727,37.0886598 15.2809091,37.0826117 15.4515,37.073677 L15.9481364,38.3986254 Z M25.5017727,4.38666667 C22.7930455,1.60522337 19.0419545,0.00233676976 14.9349545,0.00412371134 C10.8283636,0.00233676976 7.07713636,1.60522337 4.36854545,4.38666667 C1.65722727,7.16591065 -0.00259090909,11.1193127 -8.046813e-21,15.7404811 C0.00313636364,21.1821306 1.61318182,26.4454983 4.2615,30.4103093 C5.58722727,32.3916151 7.17695455,34.0507216 8.97927273,35.2266667 C10.2218182,36.0382131 11.5714091,36.6166323 12.9898636,36.8970447 L12.2327727,38.9162887 C12.1407273,39.1616495 12.1744091,39.4386254 12.3225,39.6547079 C12.4703182,39.870378 12.7156364,40 12.9758182,40 L17.0975455,40 C17.3577273,40 17.6029091,39.870378 17.751,39.6547079 C17.8988182,39.4386254 17.9325,39.1616495 17.8401818,38.9162887 L17.0682273,36.8566323 C18.4178182,36.5634364 19.7031818,36.0020619 20.8910455,35.2266667 C23.5935,33.4608935 25.821,30.6166323 27.3916364,27.2105842 C28.9598182,23.8024742 29.8693636,19.8218557 29.8703182,15.7404811 C29.8727727,11.1193127 28.2130909,7.16591065 25.5017727,4.38666667 Z" id="Fill-1"></path>
                </g>
                <path d="M5.32235738,13.5175044 C4.83398937,13.3628499 4.55839862,12.8247487 4.70686685,12.3154237 C5.26919705,10.3833059 6.22431545,8.76092231 7.43204736,7.47109546 C8.55140534,6.28886049 9.90434244,5.37567612 11.4292688,4.80312851 C11.9093433,4.62267466 12.4387712,4.88208593 12.6117122,5.38304737 C12.7846532,5.88344178 12.5358466,6.4355767 12.0557721,6.61574704 C10.7913449,7.09105086 9.67946474,7.84107547 8.75113045,8.82088459 C7.74720244,9.89467714 6.95360443,11.2351105 6.47502553,12.8756387 C6.35388525,13.2915472 5.98747328,13.559322 5.59128609,13.559322 C5.50236831,13.559322 5.41195496,13.5458553 5.32235738,13.5175044" id="Fill-4"></path>
            </g>
        </g>
    </g>
</svg>

<svg width="30" height="40" xmlns="http://www.w3.org/2000/svg"><g fill="#FFF" fill-rule="evenodd"><path d="M24.072 29.366c-1.21 1.808-2.638 3.282-4.188 4.292-1.552 1.01-3.213 1.561-4.949 1.562-1.736 0-3.397-.551-4.95-1.562-2.325-1.513-4.375-4.079-5.825-7.234-1.453-3.153-2.308-6.884-2.306-10.684.002-4.173 1.478-7.62 3.837-10.044 2.362-2.42 5.614-3.822 9.244-3.823 3.63.001 6.883 1.402 9.244 3.823 2.359 2.424 3.835 5.871 3.838 10.044.003 5.067-1.523 10.01-3.945 13.626zm-8.124 9.033h-1.823l.494-1.317c.105.004.21.007.316.007h.003c.172 0 .343-.006.513-.015l.497 1.325zm9.554-34.012C22.793 1.605 19.042.002 14.935.004 10.828.002 7.077 1.605 4.369 4.387 1.657 7.166-.003 11.119 0 15.74c.003 5.442 1.613 10.705 4.261 14.67 1.326 1.982 2.916 3.64 4.718 4.817 1.243.811 2.592 1.39 4.01 1.67l-.756 2.02a.808.808 0 0 0 .09.738.794.794 0 0 0 .653.345h4.122c.26 0 .505-.13.653-.345a.808.808 0 0 0 .09-.739l-.773-2.06c1.35-.293 2.635-.854 3.823-1.63 2.703-1.765 4.93-4.61 6.5-8.015 1.569-3.409 2.478-7.39 2.48-11.47.002-4.622-1.658-8.575-4.37-11.354z"/><path d="M5.322 13.518c-.488-.155-.764-.693-.615-1.203.562-1.932 1.517-3.554 2.725-4.844a10.65 10.65 0 0 1 3.997-2.668c.48-.18 1.01.08 1.183.58.173.5-.076 1.053-.556 1.233A8.792 8.792 0 0 0 8.75 8.82c-1.004 1.074-1.797 2.414-2.276 4.055a.93.93 0 0 1-.884.683.89.89 0 0 1-.269-.041"/></g></svg>
